tools/download-figma-icons/icons/outlined-large/carreer.svg

<svg width="65" height="64" viewBox="0 0 65 64" fill="none" xmlns="http://www.w3.org/2000/svg">
<path fill-rule="evenodd" clip-rule="evenodd" d="M36.5694 33.0018H61.0004V20.6908C61.0004 19.2118 59.4304 18.0018 57.5004 18.0018H6.50037C4.60037 18.0018 3.00037 19.2308 3.00037 20.6908V33.0018H25.5694V28.5018C25.5694 27.6718 26.2394 27.0018 27.0694 27.0018H35.0694C35.8994 27.0018 36.5694 27.6718 36.5694 28.5018V33.0018ZM33.5694 39.0018H28.5694V30.0018H33.5694V39.0018ZM25.0004 10.0018C24.7294 10.0018 24.5004 10.2218 24.5004 10.5018V15.0018H39.5004V10.5018C39.5004 10.2218 39.2794 10.0018 39.0004 10.0018H25.0004ZM42.5004 15.0018H57.5004C61.0804 15.0018 64.0004 17.5518 64.0004 20.6908V34.5018C64.0004 35.3318 63.3304 36.0018 62.5004 36.0018H36.5694V40.5018C36.5694 41.3318 35.8994 42.0018 35.0694 42.0018H27.0694C26.2394 42.0018 25.5694 41.3318 25.5694 40.5018V36.0018H1.50037C0.670366 36.0018 0.000366211 35.3318 0.000366211 34.5018V20.6908C0.000366211 17.5518 2.92037 15.0018 6.50037 15.0018H21.5004V10.5018C21.5004 8.57183 23.0694 7.00183 25.0004 7.00183H39.0004C40.9304 7.00183 42.5004 8.57183 42.5004 10.5018V15.0018ZM6.50427 57.9999H57.5043C61.1493 57.9999 64.0043 55.7039 64.0043 52.7729V40.4999C64.0043 39.6719 63.3323 38.9999 62.5043 38.9999C61.6763 38.9999 61.0043 39.6719 61.0043 40.4999V52.7729C61.0043 53.9599 59.3683 54.9999 57.5043 54.9999H6.50427C4.64027 54.9999 3.00427 53.9599 3.00427 52.7729V40.4999C3.00427 39.6719 2.33227 38.9999 1.50427 38.9999C0.676266 38.9999 0.00426621 39.6719 0.00426621 40.4999V52.7729C0.00426621 55.7039 2.85927 57.9999 6.50427 57.9999Z" fill="black"/>
</svg>

<svg xmlns="http://www.w3.org/2000/svg" width="65" height="64" fill="none" viewBox="0 0 65 64"><path fill="currentColor" fill-rule="evenodd" d="M36.57 33.002H61V20.69c0-1.48-1.57-2.69-3.5-2.69h-51C4.6 18 3 19.23 3 20.69V33h22.57v-4.5c0-.83.67-1.5 1.5-1.5h8c.83 0 1.5.67 1.5 1.5zm-3 6h-5v-9h5zm-8.57-29a.5.5 0 0 0-.5.5v4.5h15v-4.5c0-.28-.22-.5-.5-.5zm17.5 5h15c3.58 0 6.5 2.55 6.5 5.689V34.5c0 .83-.67 1.5-1.5 1.5H36.57v4.5c0 .83-.67 1.5-1.5 1.5h-8c-.83 0-1.5-.67-1.5-1.5V36H1.5C.67 36 0 35.33 0 34.5V20.69C0 17.55 2.92 15 6.5 15h15v-4.5C21.5 8.57 23.07 7 25 7h14c1.93 0 3.5 1.57 3.5 3.5zM6.504 58h51c3.645 0 6.5-2.296 6.5-5.227V40.5a1.5 1.5 0 0 0-3 0v12.273c0 1.187-1.636 2.227-3.5 2.227h-51c-1.864 0-3.5-1.04-3.5-2.227V40.5a1.5 1.5 0 0 0-3 0v12.273c0 2.93 2.855 5.227 6.5 5.227" clip-rule="evenodd"/></svg>
